images/tag-icon.svg

<svg xmlns="http://www.w3.org/2000/svg" width="16" height="16.007" viewBox="0 0 16 16.007"><path d="M14.529 0h-5.338c-.152.008-.5.247-.545.292l-6.365 6.364c-.39.39-.39 1.022 0 1.412l.794.794-.794.794c-.39.391-.39 1.022 0 1.412l4.646 4.646c.195.195.45.291.706.291.256 0 .511-.096.706-.291l6.364-6.365c.046-.045.297-.353.297-.545v-8.307c.014-.279-.197-.497-.471-.497zm-.529 8.634l-.003.009-6.362 6.364-4.646-4.643.794-.794 3.145 3.145c.195.195.45.293.706.293.256 0 .511-.098.706-.293l5.66-5.661v1.58zm-.5-6.638c-.275 0-.5-.224-.5-.5s.225-.5.5-.5.5.224.5.5-.225.5-.5.5z"/></svg>

<?xml version="1.0" encoding="utf-8"?>
<!-- Generator: Adobe Illustrator 16.0.4, SVG Export Plug-In . SVG Version: 6.00 Build 0)  -->
<!DOCTYPE svg PUBLIC "-//W3C//DTD SVG 1.1//EN" "http://www.w3.org/Graphics/SVG/1.1/DTD/svg11.dtd">
<svg version="1.1" id="Capa_1" xmlns="http://www.w3.org/2000/svg" xmlns:xlink="http://www.w3.org/1999/xlink" x="0px" y="0px"
	 width="16px" height="16.007px" viewBox="0 0 16 16.007" enable-background="new 0 0 16 16.007" xml:space="preserve">
<path d="M14.529,0H9.191c-0.152,0.008-0.5,0.247-0.545,0.292L2.281,6.656c-0.39,0.39-0.39,1.022,0,1.412l0.794,0.794L2.281,9.656
	c-0.39,0.391-0.39,1.022,0,1.412l4.646,4.646c0.195,0.195,0.45,0.291,0.706,0.291c0.256,0,0.511-0.096,0.706-0.291l6.364-6.365
	C14.749,9.304,15,8.996,15,8.804V0.497C15.014,0.218,14.803,0,14.529,0z M14,8.634l-0.003,0.009l-6.362,6.364l-4.646-4.643
	L3.783,9.57l3.145,3.145c0.195,0.195,0.45,0.293,0.706,0.293c0.256,0,0.511-0.098,0.706-0.293L14,7.054V8.634z M13.5,1.996
	c-0.275,0-0.5-0.224-0.5-0.5s0.225-0.5,0.5-0.5S14,1.22,14,1.496S13.775,1.996,13.5,1.996z"/>
</svg>
